svg/fluentui-system-icons/ic_fluent_reading_list_add_24_filled.svg

<svg width="24" height="24" viewBox="0 0 24 24" fill="none" xmlns="http://www.w3.org/2000/svg">
<path d="M17.5 12C20.5376 12 23 14.4624 23 17.5C23 20.5376 20.5376 23 17.5 23C14.4624 23 12 20.5376 12 17.5C12 14.4624 14.4624 12 17.5 12ZM17.5 13.9992L17.4101 14.0073C17.206 14.0443 17.0451 14.2053 17.0081 14.4094L17 14.4992L16.9996 16.9992L14.4977 17L14.4078 17.0081C14.2037 17.0451 14.0427 17.206 14.0057 17.4101L13.9977 17.5L14.0057 17.5899C14.0427 17.794 14.2037 17.9549 14.4078 17.9919L14.4977 18L17.0007 17.9992L17.0011 20.5035L17.0092 20.5934C17.0462 20.7975 17.2071 20.9584 17.4112 20.9954L17.5011 21.0035L17.591 20.9954C17.7951 20.9584 17.956 20.7975 17.9931 20.5934L18.0011 20.5035L18.0007 17.9992L20.5046 18L20.5944 17.9919C20.7985 17.9549 20.9595 17.794 20.9965 17.5899L21.0046 17.5L20.9965 17.4101C20.9595 17.206 20.7985 17.0451 20.5944 17.0081L20.5046 17L17.9996 16.9992L18 14.4992L17.9919 14.4094C17.9549 14.2053 17.794 14.0443 17.5899 14.0073L17.5 13.9992ZM11.019 18.0003C11.0726 18.7044 11.2383 19.3771 11.4984 20.0006L7 20C6.44772 20 6 19.5523 6 19C6 18.4872 6.38604 18.0645 6.88338 18.0067L7 18L11.019 18.0003ZM11.498 15.0004C11.238 15.6239 11.0724 16.2966 11.0189 17.0007L4 17C3.44772 17 3 16.5523 3 16C3 15.4872 3.38604 15.0645 3.88338 15.0067L4 15L11.498 15.0004ZM14.035 11.9996C13.2261 12.5102 12.5376 13.1944 12.0219 13.9998L7 14C6.44772 14 6 13.5523 6 13C6 12.4872 6.38604 12.0645 6.88338 12.0067L7 12L14.035 11.9996ZM6 5C7.23227 5 8.32533 5.75005 8.78075 6.87278C8.98834 7.38457 8.74175 7.96774 8.22997 8.17533C7.75474 8.3681 7.21796 8.16925 6.97749 7.73009L6.92741 7.62455C6.77553 7.25011 6.41104 7 6 7C5.44772 7 5 7.44772 5 8C5 8.55228 5.44772 9 6 9H17.5C18.0523 9 18.5 9.44772 18.5 10C18.5 10.5128 18.114 10.9355 17.6166 10.9933L17.5 11H6C4.34315 11 3 9.65685 3 8C3 6.34315 4.34315 5 6 5ZM20 6C20.5523 6 21 6.44772 21 7C21 7.51284 20.614 7.93551 20.1166 7.99327L20 8H11C10.4477 8 10 7.55228 10 7C10 6.48716 10.386 6.06449 10.8834 6.00673L11 6H20Z" fill="#212121"/>
</svg>

<svg xmlns="http://www.w3.org/2000/svg" width="24" height="24"><path d="M17.5 12a5.5 5.5 0 1 1 0 11 5.5 5.5 0 0 1 0-11Zm0 2-.09.007a.5.5 0 0 0-.402.402L17 14.5V17h-2.502l-.09.008a.5.5 0 0 0-.402.402l-.008.09.008.09a.5.5 0 0 0 .402.402l.09.008H17v2.503l.008.09a.5.5 0 0 0 .402.402l.09.008.09-.008a.5.5 0 0 0 .402-.402l.008-.09V18l2.504.001.09-.008a.5.5 0 0 0 .402-.402l.008-.09-.008-.09a.5.5 0 0 0-.403-.402l-.09-.008H18v-2.5l-.008-.09a.5.5 0 0 0-.402-.403L17.5 14Zm-6.481 4c.054.704.22 1.377.48 2H7a1 1 0 0 1-.117-1.993L7 18h4.019Zm.479-3a6.462 6.462 0 0 0-.48 2H4a1 1 0 0 1-.117-1.993L4 15h7.498Zm2.537-3a6.534 6.534 0 0 0-2.013 2H7a1 1 0 0 1-.117-1.993L7 12h7.035ZM6 5a3 3 0 0 1 2.78 1.873 1 1 0 0 1-1.803.857l-.05-.105A1 1 0 1 0 6 9h11.5a1 1 0 0 1 .117 1.993L17.5 11H6a3 3 0 0 1 0-6Zm14 1a1 1 0 0 1 .117 1.993L20 8h-9a1 1 0 0 1-.117-1.993L11 6h9Z"/></svg>
